**kern	**kern	**kern
*staff3	*staff2	*staff1
*tb16	*tb16	*tb16
=1-	=1-	=1-
*clefF4	*clefG2	*clefG2
*k[f#c#g#]	*k[f#c#g#]	*k[f#c#g#]
*M3/8	*M3/8	*M3/8
8r	16e/LL	8cc#\
.	16a/JJ	.
8r	8r	8r
8r	8r	8r
=2	=2	=2
[4.AA\ [4.A\	16d#/LL	4b#\
.	16a/	.
.	16b#/	.
.	16d#/	.
.	16e/	8cc#\
.	16a/JJ	.
=3	=3	=3
4.AA\] 4.A\]	16d#/LL	4b#\
.	16a/	.
.	16b#/	.
.	16d#/	.
.	16e/	8cc#\
.	16a/JJ	.
=4	=4	=4
[4.AA\ [4.A\	16gn/LL	(4ee\
.	16a/	.
.	16f#/	.
.	16a/	.
.	16fn/	8dd\)
.	16a/JJ	.
=5	=5	=5
4.AA\] 4.A\]	16e/LL	8cc#\
.	16a/	.
.	16cc#/	8r
.	16a/	.
.	16e/	8cc#\
.	16c#/JJ	.
=6	=6	=6
!!linebreak:original
[4.AA\ [4.A\	16d#/LL	(4cc#\
.	16f#/	.
.	16d#/	.
.	16f#/	.
.	16dn/	8b\)
.	16g#/JJ	.
=7	=7	=7
4.AA\] 4.A\]	16c#/LL	4a/
.	16e/	.
.	16a/	.
.	16e/	.
.	16c#/	8r
.	16A/JJ	.
=8	=8	=8
8AA/L	16cn/LL 16e/LL	8e/
.	16A/	.
8AA/	16c/ 16e/	8e/
.	16A/	.
8AA/J	16c/ 16e/	8e/
.	16A/JJ	.
=9	=9	=9
4GG#/	16d/LL 16e/LL	4e/
.	16B/	.
.	16d/ 16e/	.
.	16B/	.
8AA/	16cn/ 16e/	16fn/LL
.	16A/JJ	16e/JJ
=10	=10	=10
!!linebreak:original
16EE/	8r	4e/
16E/JJ	.	.
4r	16ee/LL	.
.	16gg#/	.
.	16e/	8r
.	16gg#/JJ	.
=11	=11	=11
4.r	16ee/LL	4.r
.	16gg#/	.
.	16e\	.
.	16g#\	.
.	16b\	.
.	16g#\JJ	.
=12	=12	=12
[4.E\	16G#/LL 16e/LL	8b\
.	16B/	.
.	16G#/ 16e/	8b\
.	16B/	.
.	16G#/ 16e/	8b\
.	16B/JJ	.
=13	=13	=13
4E\]	16Gn/LL	8ee\L
.	16c#/	.
.	16e/	8dd\J
.	16gn/	.
8EE/	16e/	8cc#\
.	16c#/JJ	.
=14	=14	=14
4FF#/	16d/LL 16b/LL	(4b\
.	16f#/	.
.	16d/ 16b/	.
.	16f#/	.
8F#\	16e/ 16a#/	8cc#\)
.	16f#/JJ	.
=15	=15	=15
!!linebreak:original
4BB/	16d/LL 16b/LL	4dd\
.	16f#/	.
.	16d/	.
.	16B/	.
8r	16d/	8r
.	16f#/JJ	.
=16	=16	=16
4r	16d/LL	8dd\
.	16f#/	.
.	16d/	8cc#\
.	16f#/	.
8D\	16d/	8b\
.	16fn/JJ	.
=17	=17	=17
4E\	16c#/LL 16a/LL	4a/
.	16e/	.
.	16c#/	.
.	16e/	.
8E\	16d/ 16g#/	8b\
.	16e/JJ	.
=18	=18	=18
8AA/L	16c#/LL 16a/LL	4cc#\
.	16e/	.
8AA/	16c#/ 16a/	.
.	16e/	.
8AA/J	16c#/ 16a/	8r
.	16e/JJ	.
=19	=19	=19
!!linebreak:original
8AA/L	16c#/LL 16a/LL	8a/
.	16e/	.
8BB/	16d/ 16a/	8a/
.	16g#/	.
8C#/J	16e/ 16a/	8a/
.	16gn/JJ	.
=20	=20	=20
4.D\	4.d/ 4.f#/	16g#\LL
.	.	(16a\
.	.	16b\
.	.	16ccn\
.	.	16cc#\
.	.	16ddn\JJ
=21	=21	=21
4.E\ 4.B\	16d/LL 16g#/LL	16dd#\LL
.	16e/	8ee\
.	16g#/	.
.	16e/	16cc#\JJ)
.	16d/ 16g#/	16ddn\LL
.	16e/JJ	16b\JJ
=22	=22	=22
[4.AA\ [4.A\	16c#/LL 16a/LL	4a/
.	16e/	.
.	16a/	.
.	16cc#/	.
.	16ee/	8r
.	16cc#/JJ	.
=23	=23	=23
4AA\] 4A\]	4a/	4r
==	==	==
*-	*-	*-
